src/pos-icons/fruit-pineapple.svg

<svg height="24" viewBox="0 0 24 24" width="24" xmlns="http://www.w3.org/2000/svg"><path d="m14.4 7.7c2-1.3 4.6-.7 4.6-.7-1.8-2.4-3.9-2.3-5.4-1.8v-.2c1.1-1.6 3.3-1.5 3.3-1.5-1.6-1.4-3-1-3.9-.5-.5-1.2-1-2-1-2-.4.7-.7 1.4-1 2.1-.9-.6-2.4-1-4 .4 0 0 2.3 0 3.4 1.7-1.5-.5-3.6-.6-5.4 1.8 0 0 2.6-.6 4.6.7-2.1 1.2-3.6 4-3.6 7.3 0 4.4 2.7 8 6 8s6-3.6 6-8c0-3.3-1.5-6.1-3.6-7.3m1.4 9.1c-.1.4-.2.8-.4 1.2l-1.4-2-1.5 2 1.6 2.1c-.3.2-.5.4-.8.6l-1.3-1.7-1.3 1.7c-.3-.1-.6-.3-.8-.6l1.6-2.1-1.5-2-1.5 1.9c-.1-.4-.3-.8-.4-1.2l1.4-1.7-1.3-1.8c.1-.4.2-.8.4-1.2l1.4 2 1.5-2-1.6-2.1c.3-.2.5-.4.8-.6l1.3 1.7 1.3-1.7c.3.1.6.3.8.6l-1.6 2.1 1.5 2 1.5-1.9c.1.4.3.8.4 1.2l-1.4 1.7zm-3.8-3.8 1.5 2-1.5 2-1.5-2z"/></svg>

<?xml version="1.0" encoding="UTF-8"?><!DOCTYPE svg PUBLIC "-//W3C//DTD SVG 1.1//EN" "http://www.w3.org/Graphics/SVG/1.1/DTD/svg11.dtd"><svg xmlns="http://www.w3.org/2000/svg" xmlns:xlink="http://www.w3.org/1999/xlink" version="1.1" id="mdi-fruit-pineapple" width="24" height="24" viewBox="0 0 24 24"><path d="M14.4 7.7C16.4 6.4 19 7 19 7C17.2 4.6 15.1 4.7 13.6 5.2V5C14.7 3.4 16.9 3.5 16.9 3.5C15.3 2.1 13.9 2.5 13 3C12.5 1.8 12 1 12 1C11.6 1.7 11.3 2.4 11 3.1C10.1 2.5 8.6 2.1 7 3.5C7 3.5 9.3 3.5 10.4 5.2C8.9 4.7 6.8 4.6 5 7C5 7 7.6 6.4 9.6 7.7C7.5 8.9 6 11.7 6 15C6 19.4 8.7 23 12 23S18 19.4 18 15C18 11.7 16.5 8.9 14.4 7.7M15.8 16.8C15.7 17.2 15.6 17.6 15.4 18L14 16L12.5 18L14.1 20.1C13.8 20.3 13.6 20.5 13.3 20.7L12 19L10.7 20.7C10.4 20.6 10.1 20.4 9.9 20.1L11.5 18L10 16L8.5 17.9C8.4 17.5 8.2 17.1 8.1 16.7L9.5 15L8.2 13.2C8.3 12.8 8.4 12.4 8.6 12L10 14L11.5 12L9.9 9.9C10.2 9.7 10.4 9.5 10.7 9.3L12 11L13.3 9.3C13.6 9.4 13.9 9.6 14.1 9.9L12.5 12L14 14L15.5 12.1C15.6 12.5 15.8 12.9 15.9 13.3L14.5 15L15.8 16.8M12 13L13.5 15L12 17L10.5 15L12 13Z" /></svg>
